com.fiatuconnect/capabilities/availablenergy.svg

<svg height="960" viewBox="0 0 960 960" width="960" xmlns="http://www.w3.org/2000/svg"><path d="m557 21c26.509668 0 48 21.490332 48 48v32h12c34.992762 0 63.426255 28.083566 63.991426 62.941643l.008574 1.058357v711c0 35.346224-28.653776 64-64 64h-274c-35.346224 0-64-28.653776-64-64v-711c0-35.346224 28.653776-64 64-64h12v-32c0-26.2445713 21.062674-47.5696914 47.206232-48zm-214 120c-13.254834 0-24 10.745166-24 24v711c0 13.254834 10.745166 24 24 24h274c13.254834 0 24-10.745166 24-24v-711c0-13.254834-10.745166-24-24-24zm252 130.5c9.388841 0 17 7.611159 17 17v562c0 9.388841-7.611159 17-17 17h-230c-9.388841 0-17-7.611159-17-17v-562c0-9.388841 7.611159-17 17-17zm-38-210.5h-154c-4.418278 0-8 3.581722-8 8v32h170v-32c0-4.3349143-3.447838-7.8645429-7.750821-7.9961932z"/></svg>

<?xml version="1.0" encoding="UTF-8"?>
<svg width="960px" height="960px" viewBox="0 0 960 960" version="1.1" xmlns="http://www.w3.org/2000/svg" xmlns:xlink="http://www.w3.org/1999/xlink">
    <title>se.cohen.renaultze/capabilities/availablenergy</title>
    <g id="se.cohen.renaultze/capabilities/availablenergy" stroke="none" stroke-width="1" fill="none" fill-rule="evenodd">
        <path d="M557,21 C583.509668,21 605,42.490332 605,69 L605,69 L605,101 L617,101 C651.992762,101 680.426255,129.083566 680.991426,163.941643 L680.991426,163.941643 L681,165 L681,876 C681,911.346224 652.346224,940 617,940 L617,940 L343,940 C307.653776,940 279,911.346224 279,876 L279,876 L279,165 C279,129.653776 307.653776,101 343,101 L343,101 L355,101 L355,69 C355,42.7554287 376.062674,21.4303086 402.206232,21 L402.206232,21 Z M343,141 C329.745166,141 319,151.745166 319,165 L319,165 L319,876 C319,889.254834 329.745166,900 343,900 L343,900 L617,900 C630.254834,900 641,889.254834 641,876 L641,876 L641,165 C641,151.745166 630.254834,141 617,141 L617,141 Z M595,271.5 C604.388841,271.5 612,279.111159 612,288.5 L612,850.5 C612,859.888841 604.388841,867.5 595,867.5 L365,867.5 C355.611159,867.5 348,859.888841 348,850.5 L348,288.5 C348,279.111159 355.611159,271.5 365,271.5 L595,271.5 Z M557,61 L403,61 C398.581722,61 395,64.581722 395,69 L395,69 L395,101 L565,101 L565,69 C565,64.6650857 561.552162,61.1354571 557.249179,61.0038068 L557,61 Z" id="Combined-Shape" fill="#000000" fill-rule="nonzero"></path>
    </g>
</svg>
